X: 1881
T: Somebody Loves Me
B: australian traditional tunes wiki
M:6/8
L:1/8
R: Jig
Q: 3/8=100
K:G
V:1 
|:"G"d2^cd2g|Bc^cd2B|"C"cBce2d|"G"B3Bc^c|
d2^cd2g|Bc^cd2B|"A7"Aed "D7"ABA|1"G"GBdg2e:|2"G"GBdg2B||
|:"D7"A2Ac2B|AGAB2"G"B|"D7"DEDd2c|"G"BAG"D7"A3|
DEDc2B|AGA"G"B2G|"C"EcB "D7"AGF|1"G"G3GFG:|2"G"G3-G3||
% abcbook-tune_id 6342d53a603cc1acfab5352a


% abcbook-boost 0
% abcbook-tablature 
% abcbook-transpose 
% abcbook-lastupdated 1665324390207
% abcbook-soundfonts 
% abcbook-repeats 1
% NFF Book 2010

